src/assets/images/svg/footer-vk.svg

<svg class="footer-social__svg footer-social__svg_vk btn" width="40" height="32"
                                                viewBox="0 0 40 32" fill="none" xmlns="http://www.w3.org/2000/svg">
                                                <path
                                                    d="M39.788 28.8995C39.7395 28.7531 39.6944 28.6317 39.6524 28.5345C38.9584 26.7819 37.6322 24.6307 35.6746 22.0803L35.6332 22.0219L35.6125 21.9933L35.5916 21.9639H35.5706C34.6821 20.7763 34.1195 19.9778 33.8839 19.569C33.4527 18.7902 33.3562 18.002 33.5918 17.2032C33.7582 16.5998 34.3835 15.3254 35.4662 13.3782C36.0357 12.3463 36.4867 11.5193 36.8197 10.8962C39.2219 6.41831 40.2633 3.55689 39.9438 2.3108L39.8198 2.01961C39.7364 1.8443 39.5212 1.68392 39.1745 1.53766C38.827 1.3917 38.3828 1.36756 37.8412 1.46483L31.8434 1.52293C31.7462 1.47465 31.6075 1.47915 31.4267 1.53766C31.2462 1.59616 31.1559 1.62552 31.1559 1.62552L31.0515 1.69865L30.9686 1.78651C30.8992 1.8446 30.8228 1.94678 30.7394 2.09284C30.6565 2.23839 30.5871 2.40919 30.5317 2.60384C29.8787 4.95947 29.1362 7.14962 28.303 9.17418C27.7892 10.3814 27.3174 11.4276 26.8865 12.3135C26.4562 13.199 26.0952 13.8515 25.8039 14.2697C25.5121 14.6884 25.2488 15.0237 25.0123 15.2771C24.7762 15.5305 24.5959 15.6376 24.4711 15.5985C24.346 15.5593 24.2282 15.5204 24.1167 15.4815C23.9224 15.3062 23.7662 15.0678 23.6483 14.7661C23.53 14.4644 23.4504 14.0846 23.4087 13.6271C23.3673 13.1693 23.3428 12.7755 23.3358 12.4444C23.3293 12.1137 23.3323 11.646 23.3464 11.0425C23.3608 10.4388 23.3673 10.0303 23.3673 9.81609C23.3673 9.07619 23.3776 8.27318 23.3982 7.40686C23.4192 6.54054 23.4362 5.85413 23.4504 5.34845C23.4646 4.84226 23.4712 4.30672 23.4712 3.74212C23.4712 3.17753 23.4467 2.73476 23.3982 2.41339C23.3504 2.09243 23.2769 1.78088 23.1801 1.47885C23.0827 1.17712 22.9402 0.94371 22.7532 0.778015C22.5658 0.612524 22.3328 0.481194 22.0555 0.383618C21.3196 0.15011 20.3825 0.023793 19.2437 0.00415505C16.6614 -0.0347118 15.0021 0.199103 14.2662 0.705292C13.9747 0.919162 13.7108 1.21138 13.4749 1.58102C13.2249 2.00948 13.1901 2.2433 13.3705 2.28175C14.2037 2.45676 14.7935 2.87539 15.1407 3.53725L15.2658 3.88798C15.3631 4.14102 15.4603 4.58901 15.5575 5.23134C15.6546 5.87366 15.7173 6.58421 15.7448 7.36257C15.8141 8.78397 15.8141 10.0007 15.7448 11.0129C15.6753 12.0255 15.6097 12.8137 15.547 13.3783C15.4843 13.9429 15.3907 14.4004 15.2658 14.7508C15.1407 15.1012 15.0575 15.3153 15.0157 15.3931C14.9741 15.4708 14.9394 15.5198 14.9118 15.539C14.7313 15.636 14.5436 15.6854 14.3494 15.6854C14.1548 15.6854 13.9189 15.549 13.6413 15.2763C13.3638 15.0036 13.0757 14.629 12.7771 14.152C12.4786 13.6749 12.1419 13.0081 11.7668 12.1516C11.3921 11.2951 11.0033 10.2828 10.6007 9.11475L10.2675 8.26766C10.0593 7.7227 9.77478 6.9292 9.41378 5.88788C9.05255 4.84615 8.73327 3.83847 8.45572 2.86506C8.34477 2.45624 8.17809 2.145 7.95597 1.93083L7.85173 1.84297C7.78244 1.76523 7.67119 1.68269 7.51859 1.59473C7.36577 1.50687 7.20632 1.44386 7.03956 1.4051L1.33314 1.4632C0.750021 1.4632 0.354367 1.64843 0.146036 2.01838L0.0626598 2.19338C0.0210082 2.29085 0 2.44653 0 2.66081C0 2.87498 0.0416516 3.13785 0.125028 3.44909C0.95806 6.19432 1.86397 8.84186 2.84274 11.3921C3.82152 13.9424 4.67206 15.9967 5.39385 17.5533C6.11579 19.1109 6.85166 20.581 7.60146 21.9628C8.35126 23.3451 8.84758 24.231 9.09041 24.6202C9.33354 25.0101 9.52451 25.3016 9.66332 25.4962L10.1841 26.1969C10.5173 26.6643 11.0066 27.2239 11.6522 27.876C12.298 28.5284 13.013 29.1708 13.7974 29.804C14.582 30.4362 15.4948 30.9521 16.5362 31.3511C17.5775 31.7505 18.591 31.9108 19.5768 31.8335H21.9719C22.4577 31.7746 22.8257 31.5605 23.0758 31.1908L23.1587 31.0445C23.2144 30.9283 23.2666 30.7477 23.3147 30.5048C23.3634 30.2615 23.3876 29.9934 23.3876 29.7018C23.3734 28.8648 23.4189 28.1105 23.5227 27.4389C23.6265 26.7676 23.7449 26.2614 23.8772 25.9205C24.0094 25.5799 24.1587 25.2925 24.3248 25.0595C24.4912 24.826 24.6098 24.6845 24.6794 24.6358C24.7486 24.5868 24.8038 24.5536 24.8455 24.5336C25.1787 24.378 25.5708 24.5287 26.0225 24.9866C26.4738 25.4441 26.8971 26.009 27.2931 26.6804C27.6888 27.3524 28.1642 28.1063 28.7195 28.9433C29.2751 29.7806 29.7609 30.4029 30.1773 30.8124L30.5937 31.1628C30.8717 31.3966 31.2327 31.6108 31.6771 31.8054C32.1207 32 32.5093 32.0486 32.8431 31.9514L38.1744 31.8348C38.7017 31.8348 39.112 31.7123 39.4031 31.4694C39.6947 31.2261 39.868 30.958 39.9239 30.6664C39.9796 30.3745 39.9826 30.0433 39.9344 29.6731C39.885 29.3037 39.8364 29.0455 39.788 28.8995Z"
                                                    fill="" />
                                            </svg>

<svg width="40" height="32" viewBox="0 0 40 32" fill="none" xmlns="http://www.w3.org/2000/svg"><path d="M39.788 28.9a4.54 4.54 0 00-.136-.365c-.694-1.753-2.02-3.904-3.977-6.455l-.042-.058-.02-.029-.021-.03h-.021c-.889-1.187-1.451-1.985-1.687-2.394-.431-.779-.528-1.567-.292-2.366.166-.603.791-1.878 1.874-3.825.57-1.032 1.02-1.859 1.354-2.482 2.402-4.478 3.443-7.34 3.124-8.585l-.124-.291c-.084-.176-.299-.336-.645-.482-.348-.146-.792-.17-1.334-.073l-5.998.058c-.097-.048-.235-.044-.416.015l-.271.088-.104.073-.083.088c-.07.058-.146.16-.23.306a2.31 2.31 0 00-.207.51 57.934 57.934 0 01-2.229 6.571 69.527 69.527 0 01-1.416 3.14c-.43.885-.792 1.537-1.083 1.956a9.254 9.254 0 01-.792 1.007c-.236.254-.416.36-.54.322-.126-.04-.244-.079-.355-.117a1.85 1.85 0 01-.469-.716c-.118-.302-.198-.681-.24-1.139a17.523 17.523 0 01-.072-1.183c-.007-.33-.004-.798.01-1.402.015-.603.021-1.012.021-1.226 0-.74.01-1.543.031-2.41.021-.865.038-1.552.052-2.058.015-.506.021-1.041.021-1.606 0-.564-.024-1.007-.073-1.329a5.91 5.91 0 00-.218-.934c-.097-.302-.24-.535-.427-.701a2.087 2.087 0 00-.698-.394c-.735-.234-1.672-.36-2.811-.38-2.583-.039-4.242.195-4.978.701a3.207 3.207 0 00-.791.876c-.25.428-.285.662-.104.7.833.176 1.422.594 1.77 1.256l.125.351c.097.253.194.701.291 1.343.098.643.16 1.353.188 2.132.07 1.421.07 2.638 0 3.65s-.135 1.8-.198 2.365c-.063.565-.156 1.022-.281 1.373-.125.35-.209.564-.25.642a.453.453 0 01-.104.146c-.18.097-.368.146-.563.146-.194 0-.43-.136-.708-.409-.277-.272-.565-.647-.864-1.124-.298-.477-.635-1.144-1.01-2A41.01 41.01 0 0110.6 9.115l-.334-.847a87.485 87.485 0 01-.853-2.38 56.672 56.672 0 01-.958-3.023c-.111-.409-.278-.72-.5-.934l-.104-.088c-.07-.078-.18-.16-.333-.248a1.752 1.752 0 00-.48-.19l-5.706.058c-.583 0-.979.185-1.187.555l-.083.175C.02 2.291 0 2.447 0 2.661c0 .214.042.477.125.788a116.89 116.89 0 002.718 7.943c.979 2.55 1.83 4.605 2.55 6.161a78.212 78.212 0 002.208 4.41c.75 1.382 1.247 2.268 1.49 2.657.243.39.434.682.572.876l.521.7c.333.468.823 1.028 1.468 1.68a25.94 25.94 0 002.145 1.928 10.079 10.079 0 002.74 1.547c1.04.4 2.054.56 3.04.483h2.395c.486-.06.854-.273 1.104-.643l.083-.146a2.47 2.47 0 00.156-.54c.048-.243.073-.512.073-.803a13.2 13.2 0 01.135-2.263c.104-.671.222-1.178.354-1.518.132-.341.282-.628.448-.861.166-.234.285-.375.354-.424.07-.05.125-.082.167-.102.333-.156.725-.005 1.177.453a8.67 8.67 0 011.27 1.693c.396.672.871 1.426 1.427 2.263.555.838 1.04 1.46 1.457 1.87l.417.35c.278.234.639.448 1.083.642.444.195.832.244 1.166.146l5.331-.116c.528 0 .938-.123 1.23-.366.29-.243.464-.511.52-.803a3.15 3.15 0 00.01-.993c-.049-.37-.098-.627-.146-.773z" fill="#fff"/></svg>
